src/share.svg

<svg viewBox="0 0 16 16" fill="none" xmlns="http://www.w3.org/2000/svg"><path fill-rule="evenodd" clip-rule="evenodd" d="m11 5-.71.71L8.5 3.92V12h-1V3.92L5.71 5.71 5 5l2.29-2.29L8 2l3 3ZM2 7v7h12V7h-1v6H3V7H2Z" fill="#111111"/></svg>

<svg viewBox="0 0 16 16" fill="none" xmlns="http://www.w3.org/2000/svg"><path fill-rule="evenodd" clip-rule="evenodd" d="M11 5L10.29 5.71L8.5 3.92V12H7.5V3.92L5.71 5.71L5 5L7.29 2.71L8 2L11 5ZM2 7V14H14V7H13V13H3V7H2Z" fill="#111111"/></svg>
